X:81
T:The Swallow's Tail
R: Reel
N:page 27
N: heptatonic
% Nottingham Music Database
S:via PR
M:4/4
L:1/8
K:Ador
gf|"Am"eAcA eA (3cBA|"Em"Bdef gedB| "G"G2BG dGBG|\
"D7"Bdef "G"g2fg| "Am"eA (3dBA eAcA|\
"Em"Bdef "G"g2fg| "Am"afge "G"dBGB|"D7"Ac"G"BG "Am"A2::
Bd|"Am"eaag abag|"Em"edef gedB|\
"G"G2(3BAG dGBG|"D7"Bdef "Gm"g2gf|\
"Am"eaag "Em"abag|"Em"edef "Em"g2fg|\
"Am"afge "G"dBGB|"D7"AcBG "Am"A2:|
